icons-svg/func_firmware.svg

<?xml version="1.0" encoding="UTF-8" standalone="no"?>
<!-- Generator: Adobe Illustrator 16.0.0, SVG Export Plug-In . SVG Version: 6.00 Build 0)  -->

<svg
   version="1.1"
   id="Capa_1"
   x="0px"
   y="0px"
   width="459px"
   height="459px"
   viewBox="0 0 459 459"
   style="enable-background:new 0 0 459 459;"
   xml:space="preserve"
   sodipodi:docname="func_firmware.svg"
   inkscape:version="1.1.1 (c3084ef, 2021-09-22)"
   inkscape:export-filename="/Users/matt/Downloads/linux-dual-boot/themes/refind-theme-grey/icons/func_firmware.png"
   inkscape:export-xdpi="13.39"
   inkscape:export-ydpi="13.39"
   xmlns:inkscape="http://www.inkscape.org/namespaces/inkscape"
   xmlns:sodipodi="http://sodipodi.sourceforge.net/DTD/sodipodi-0.dtd"
   xmlns="http://www.w3.org/2000/svg"
   xmlns:svg="http://www.w3.org/2000/svg"><defs
   id="defs1502" /><sodipodi:namedview
   id="namedview1500"
   pagecolor="#ffffff"
   bordercolor="#111111"
   borderopacity="1"
   inkscape:pageshadow="0"
   inkscape:pageopacity="0"
   inkscape:pagecheckerboard="1"
   showgrid="false"
   inkscape:zoom="1.0413943"
   inkscape:cx="67.217573"
   inkscape:cy="229.01987"
   inkscape:window-width="1280"
   inkscape:window-height="800"
   inkscape:window-x="0"
   inkscape:window-y="0"
   inkscape:window-maximized="0"
   inkscape:current-layer="g1467" />
<g
   id="g1467">
	<g
   id="memory"
   style="fill:#737373;fill-opacity:1">
		<path
   d="M306,153H153v153h153V153z M255,255h-51v-51h51V255z M459,204v-51h-51v-51c0-28.05-22.95-51-51-51h-51V0h-51v51h-51V0h-51    v51h-51c-28.05,0-51,22.95-51,51v51H0v51h51v51H0v51h51v51c0,28.05,22.95,51,51,51h51v51h51v-51h51v51h51v-51h51    c28.05,0,51-22.95,51-51v-51h51v-51h-51v-51H459z M357,357H102V102h255V357z"
   id="path1464"
   style="fill:#737373;fill-opacity:1" />
	</g>
</g>
<g
   id="g1469">
</g>
<g
   id="g1471">
</g>
<g
   id="g1473">
</g>
<g
   id="g1475">
</g>
<g
   id="g1477">
</g>
<g
   id="g1479">
</g>
<g
   id="g1481">
</g>
<g
   id="g1483">
</g>
<g
   id="g1485">
</g>
<g
   id="g1487">
</g>
<g
   id="g1489">
</g>
<g
   id="g1491">
</g>
<g
   id="g1493">
</g>
<g
   id="g1495">
</g>
<g
   id="g1497">
</g>
</svg>

<?xml version="1.0" encoding="UTF-8" standalone="no"?>
<!-- Generator: Adobe Illustrator 16.0.0, SVG Export Plug-In . SVG Version: 6.00 Build 0)  -->

<svg
   version="1.1"
   id="Capa_1"
   x="0px"
   y="0px"
   width="64"
   height="64"
   viewBox="0 0 64 64"
   xml:space="preserve"
   sodipodi:docname="func_firmware.svg"
   inkscape:version="1.1.1 (c3084ef, 2021-09-22)"
   inkscape:export-filename="/Users/matt/Downloads/linux-dual-boot/themes/refind-theme-grey/icons/func_firmware.png"
   inkscape:export-xdpi="13.39"
   inkscape:export-ydpi="13.39"
   xmlns:inkscape="http://www.inkscape.org/namespaces/inkscape"
   xmlns:sodipodi="http://sodipodi.sourceforge.net/DTD/sodipodi-0.dtd"
   xmlns="http://www.w3.org/2000/svg"
   xmlns:svg="http://www.w3.org/2000/svg"><defs
   id="defs1502" /><sodipodi:namedview
   id="namedview1500"
   pagecolor="#ffffff"
   bordercolor="#111111"
   borderopacity="1"
   inkscape:pageshadow="0"
   inkscape:pageopacity="0"
   inkscape:pagecheckerboard="1"
   showgrid="false"
   inkscape:zoom="0.73619288"
   inkscape:cx="36.675171"
   inkscape:cy="222.76771"
   inkscape:window-width="1280"
   inkscape:window-height="774"
   inkscape:window-x="0"
   inkscape:window-y="26"
   inkscape:window-maximized="0"
   inkscape:current-layer="g1467" />
<g
   id="g1467">
	<g
   id="memory"
   style="fill:#737373;fill-opacity:1"
   transform="matrix(0.08714597,0,0,0.08714597,12,12)">
		<path
   d="M 306,153 H 153 v 153 h 153 z m -51,102 h -51 v -51 h 51 z M 459,204 V 153 H 408 V 102 C 408,73.95 385.05,51 357,51 H 306 V 0 H 255 V 51 H 204 V 0 H 153 V 51 H 102 C 73.95,51 51,73.95 51,102 v 51 H 0 v 51 h 51 v 51 H 0 v 51 h 51 v 51 c 0,28.05 22.95,51 51,51 h 51 v 51 h 51 v -51 h 51 v 51 h 51 v -51 h 51 c 28.05,0 51,-22.95 51,-51 v -51 h 51 V 255 H 408 V 204 Z M 357,357 H 102 V 102 h 255 z"
   id="path1464"
   style="fill:#737373;fill-opacity:1" />
	</g>
</g>
<g
   id="g1469">
</g>
<g
   id="g1471">
</g>
<g
   id="g1473">
</g>
<g
   id="g1475">
</g>
<g
   id="g1477">
</g>
<g
   id="g1479">
</g>
<g
   id="g1481">
</g>
<g
   id="g1483">
</g>
<g
   id="g1485">
</g>
<g
   id="g1487">
</g>
<g
   id="g1489">
</g>
<g
   id="g1491">
</g>
<g
   id="g1493">
</g>
<g
   id="g1495">
</g>
<g
   id="g1497">
</g>
</svg>
